static/images/icons/contentful.svg

<svg fill="none" height="50" viewBox="0 0 50 50" width="50" xmlns="http://www.w3.org/2000/svg"><path d="m17.6861 34.0795c-2.3986-2.4-3.8095-5.7-3.8095-9.45s1.4109-7.05 3.6684-9.45c1.9753-2.1 1.9753-5.40002 0-7.50002s-5.0794-2.1-7.0547 0c-3.95061 4.35002-6.4903 10.35002-6.4903 16.95002s2.53969 12.6 6.6314 16.95c1.9753 2.1 5.0794 2.1 7.0547 0 1.8342-2.1 1.8342-5.4 0-7.5z" fill="#ffd85f"/><path d="m17.6861 15.1795c2.2575-2.55 5.3615-4.05 8.8889-4.05 3.5273 0 6.6314 1.5 8.8888 3.9 1.9754 2.1 5.0794 2.1 7.0547 0s1.9753-5.40001 0-7.50001c-4.0917-4.2-9.7354-6.900004-15.9435-6.900004-6.2082 0-11.8519 2.700004-15.9436 7.050004-1.97531 2.09999-1.97531 5.40001 0 7.50001 1.9753 1.95 5.0794 1.95 7.0547 0z" fill="#3bb4e7"/><path d="m35.4638 34.0795c-2.2574 2.55-5.3615 4.05-8.8888 4.05-3.5274 0-6.6314-1.5-8.8889-3.9-1.9753-2.1-5.0794-2.1-7.0547 0-1.97531 2.1-1.97531 5.4 0 7.5 4.0917 4.2 9.7354 6.9 15.9436 6.9 6.2081 0 11.8518-2.7 15.9435-7.05 1.9753-2.1 1.9753-5.4 0-7.5-1.9753-1.95-5.0793-1.95-7.0547 0z" fill="#ed5c68"/><path d="m14.1586 16.6795c2.7274 0 4.9383-2.3505 4.9383-5.25 0-2.89952-2.2109-5.25003-4.9383-5.25003-2.7273 0-4.93823 2.35051-4.93823 5.25003 0 2.8995 2.21093 5.25 4.93823 5.25z" fill="#308bc5"/><path d="m14.1586 43.0795c2.7274 0 4.9383-2.3505 4.9383-5.25s-2.2109-5.25-4.9383-5.25c-2.7273 0-4.93823 2.3505-4.93823 5.25s2.21093 5.25 4.93823 5.25z" fill="#d5465f"/></svg>

<svg width="50" height="50" viewBox="0 0 50 50" fill="none" xmlns="http://www.w3.org/2000/svg">
<path d="M17.6861 34.0795C15.2875 31.6795 13.8766 28.3795 13.8766 24.6295C13.8766 20.8795 15.2875 17.5795 17.545 15.1795C19.5203 13.0795 19.5203 9.77948 17.545 7.67948C15.5697 5.57948 12.4656 5.57948 10.4903 7.67948C6.53969 12.0295 4 18.0295 4 24.6295C4 31.2295 6.53969 37.2295 10.6314 41.5795C12.6067 43.6795 15.7108 43.6795 17.6861 41.5795C19.5203 39.4795 19.5203 36.1795 17.6861 34.0795Z" fill="#FFD85F"/>
<path d="M17.6861 15.1795C19.9436 12.6295 23.0476 11.1295 26.575 11.1295C30.1023 11.1295 33.2064 12.6295 35.4638 15.0295C37.4392 17.1295 40.5432 17.1295 42.5185 15.0295C44.4938 12.9295 44.4938 9.62949 42.5185 7.52949C38.4268 3.32949 32.7831 0.629486 26.575 0.629486C20.3668 0.629486 14.7231 3.32949 10.6314 7.67949C8.65609 9.77948 8.65609 13.0795 10.6314 15.1795C12.6067 17.1295 15.7108 17.1295 17.6861 15.1795Z" fill="#3BB4E7"/>
<path d="M35.4638 34.0795C33.2064 36.6295 30.1023 38.1295 26.575 38.1295C23.0476 38.1295 19.9436 36.6295 17.6861 34.2295C15.7108 32.1295 12.6067 32.1295 10.6314 34.2295C8.65609 36.3295 8.65609 39.6295 10.6314 41.7295C14.7231 45.9295 20.3668 48.6295 26.575 48.6295C32.7831 48.6295 38.4268 45.9295 42.5185 41.5795C44.4938 39.4795 44.4938 36.1795 42.5185 34.0795C40.5432 32.1295 37.4392 32.1295 35.4638 34.0795Z" fill="#ED5C68"/>
<path d="M14.1586 16.6795C16.886 16.6795 19.0969 14.329 19.0969 11.4295C19.0969 8.52998 16.886 6.17947 14.1586 6.17947C11.4313 6.17947 9.22037 8.52998 9.22037 11.4295C9.22037 14.329 11.4313 16.6795 14.1586 16.6795Z" fill="#308BC5"/>
<path d="M14.1586 43.0795C16.886 43.0795 19.0969 40.729 19.0969 37.8295C19.0969 34.93 16.886 32.5795 14.1586 32.5795C11.4313 32.5795 9.22037 34.93 9.22037 37.8295C9.22037 40.729 11.4313 43.0795 14.1586 43.0795Z" fill="#D5465F"/>
</svg>
